<?xml version="1.0" encoding="UTF-8"?>
<map version="1.10" tiledversion="1.11.2" orientation="orthogonal" renderorder="right-down" width="30" height="20" tilewidth="16" tileheight="16" infinite="0" nextlayerid="2" nextobjectid="1">
 <editorsettings>
  <export target="map02.csv" format="csv"/>
 </editorsettings>
 <tileset firstgid="1" source="main.tsx"/>
 <layer id="1" name="Tile Layer 1" width="30" height="20">
  <data encoding="csv">
2,3,3,3,3,3,3,4,1,1,1,1,1,1,1,1,1,1,1,1,1,1,1,1,1,1,1,1,1,1,
10,11,11,11,11,11,11,12,1,1,1,1,1,1,1,1,1,1,1,1,1,1,2,3,3,4,1,1,1,1,
10,11,11,11,11,11,11,12,1,1,1,1,11,11,11,11,11,1,1,1,1,1,10,11,11,12,1,1,1,1,
10,11,11,11,11,11,11,12,1,1,1,1,1,1,1,1,11,11,11,11,1,1,18,19,19,20,1,1,1,1,
10,11,11,11,11,11,11,12,1,1,1,1,1,1,1,1,1,1,1,11,11,11,1,1,1,1,1,1,1,1,
10,11,11,11,11,11,11,13,1,1,1,1,1,1,1,1,1,1,1,1,1,11,11,11,1,1,1,1,1,1,
18,6,11,11,11,11,11,11,13,3,3,3,3,3,3,3,3,3,3,4,1,1,1,11,11,1,1,1,1,1,
1,10,11,11,11,11,11,11,11,11,11,11,11,11,11,11,11,11,11,13,4,1,1,1,11,1,1,1,1,1,
2,14,11,11,11,11,11,11,11,11,11,11,11,11,11,11,11,11,11,11,13,4,1,1,1,11,1,1,1,1,
10,11,11,11,11,11,11,11,11,11,11,11,11,11,11,11,11,11,11,11,11,12,1,1,1,11,1,1,1,1,
10,11,11,11,11,11,11,11,11,11,11,11,11,11,11,11,11,11,11,11,11,12,1,1,1,11,1,1,1,1,
10,11,11,11,11,11,11,11,5,19,19,19,19,19,19,6,11,11,11,11,11,12,1,1,1,11,1,1,1,1,
10,11,5,6,11,11,11,5,20,1,1,1,1,1,1,10,11,11,11,11,11,12,1,1,1,11,1,1,1,1,
10,11,13,14,11,11,5,20,1,1,1,1,1,1,1,10,11,11,11,11,11,12,1,1,1,1,1,1,1,1,
10,11,11,11,11,5,20,1,1,1,11,11,1,1,1,10,11,11,11,11,11,12,1,1,1,1,1,1,1,1,
18,19,19,19,19,20,1,1,11,11,11,11,11,1,1,10,11,11,11,11,11,12,1,1,1,1,1,1,1,1,
1,1,1,1,1,1,1,1,1,11,11,11,11,1,2,14,11,11,11,11,11,12,1,1,1,1,2,3,4,1,
1,1,1,1,1,1,1,1,1,1,1,1,1,1,18,6,5,19,19,19,19,20,1,1,1,1,10,11,12,1,
1,1,1,1,1,1,1,1,1,1,1,1,1,1,1,18,20,1,1,1,1,1,1,1,1,1,18,19,20,1,
1,1,1,1,1,1,1,1,1,1,1,1,1,1,1,1,1,1,1,1,1,1,1,1,1,1,1,1,1,1
</data>
 </layer>
</map>
