<?xml version="1.0" encoding="UTF-8"?>
<map version="1.10" tiledversion="1.11.2" orientation="orthogonal" renderorder="right-down" width="40" height="40" tilewidth="16" tileheight="16" infinite="0" nextlayerid="5" nextobjectid="1">
 <editorsettings>
  <export target="../levels/test.csv" format="csv"/>
 </editorsettings>
 <tileset firstgid="1" source="tilesets/sunnyside_world.tsx"/>
 <tileset firstgid="4097" source="tilesets/collision.tsx"/>
 <layer id="1" name="ground" width="40" height="40">
  <data encoding="csv">
67,67,67,67,67,67,67,67,67,67,67,67,67,67,67,67,67,67,67,67,67,67,67,67,67,67,67,67,67,67,67,67,67,67,67,67,67,67,67,67,
67,67,67,67,67,67,67,67,67,67,67,67,67,67,67,67,67,67,67,67,67,67,67,67,67,67,67,67,67,67,67,67,67,67,67,67,67,67,67,67,
67,67,67,67,67,67,67,67,67,67,67,67,67,67,67,67,67,67,67,67,67,67,67,67,67,67,67,67,67,67,67,67,67,67,67,67,67,67,67,67,
67,67,67,67,67,67,67,67,67,67,67,67,67,67,67,67,67,67,67,67,67,67,67,67,67,67,67,67,67,67,67,67,67,67,67,67,67,67,67,67,
67,67,67,67,67,67,67,67,67,67,67,67,67,67,67,67,67,67,67,67,67,67,67,67,67,67,67,67,67,67,67,67,67,67,67,67,67,67,67,67,
67,67,67,67,67,67,67,67,67,67,67,193,67,135,67,67,67,67,67,67,67,67,67,67,67,67,67,67,67,67,67,67,67,67,67,67,67,67,67,67,
67,67,67,67,67,67,67,67,133,67,67,67,67,67,67,67,67,67,67,67,67,67,67,67,67,67,67,67,67,67,67,67,67,67,67,67,67,67,67,67,
67,67,67,67,67,67,67,67,67,67,67,67,67,67,67,67,67,67,67,67,67,67,67,67,67,67,67,67,67,67,67,67,67,67,67,67,67,67,67,67,
67,67,67,67,67,67,67,67,67,67,67,67,67,67,67,67,67,67,67,67,67,67,67,67,130,67,67,67,67,67,67,67,67,67,67,67,67,67,67,67,
67,67,67,67,67,67,67,67,67,67,67,67,67,67,67,67,67,67,67,67,67,67,67,67,67,67,67,67,67,67,67,67,67,67,67,67,67,67,67,67,
67,67,67,67,67,67,67,67,67,67,67,67,67,67,67,67,67,67,67,67,67,67,67,67,67,67,67,67,67,67,67,67,67,67,67,67,67,67,67,67,
67,67,67,67,67,67,67,67,67,67,67,67,67,130,67,67,67,67,67,67,67,67,67,67,67,67,67,67,67,67,67,67,67,67,67,67,67,67,67,67,
67,67,67,67,67,67,67,474,474,474,474,474,474,538,67,67,67,67,67,67,67,67,67,67,67,67,67,67,67,67,67,67,67,67,130,67,67,67,67,67,
67,67,67,67,67,67,472,471,471,471,471,471,471,473,67,67,67,67,67,67,67,67,67,67,67,67,67,67,67,67,67,67,67,67,67,67,67,67,67,67,
67,67,67,67,67,476,471,471,471,471,471,471,471,471,473,474,474,474,474,474,474,67,67,67,67,67,67,67,67,135,193,67,67,67,67,67,67,67,67,67,
67,67,67,67,67,476,471,471,471,471,471,471,471,471,471,471,471,471,471,471,471,473,67,67,67,67,67,67,67,67,67,67,67,67,67,67,67,67,67,67,
67,67,67,67,67,476,471,471,471,471,471,471,471,471,471,471,471,471,471,471,471,471,537,67,67,67,67,67,67,67,67,67,67,67,67,67,67,67,67,67,
67,67,67,67,67,476,471,471,471,471,471,471,471,471,471,471,471,471,471,471,471,471,537,67,67,67,67,67,67,67,67,67,67,67,67,67,67,67,67,67,
67,67,67,130,67,476,471,471,471,471,471,471,471,471,471,471,471,471,471,471,471,471,537,67,67,67,67,67,67,67,67,67,67,67,67,67,67,67,67,67,
67,67,67,67,67,476,471,471,471,471,471,471,471,471,471,471,471,471,471,471,471,471,537,67,67,67,67,67,67,67,67,67,67,67,67,67,67,67,67,67,
67,67,67,67,67,476,471,471,471,471,471,471,471,471,471,471,471,471,471,471,471,471,537,67,67,133,67,67,67,67,67,67,67,67,67,67,67,67,67,67,
67,67,67,67,67,67,475,471,471,471,471,471,471,471,471,471,471,471,471,471,471,535,67,67,67,67,67,67,67,67,67,67,67,67,67,67,67,67,67,67,
67,67,67,67,67,67,67,475,471,471,471,471,471,471,471,471,471,471,471,471,471,537,67,67,67,67,67,67,67,67,67,67,67,67,67,67,67,67,67,67,
67,67,67,67,67,67,67,67,475,471,471,471,471,471,471,471,471,471,471,535,539,67,67,67,67,67,67,67,67,130,67,67,67,67,67,67,67,67,67,67,
67,67,67,67,67,67,67,67,67,539,539,539,539,539,539,539,539,539,539,67,67,67,67,67,67,67,67,67,67,67,67,67,67,67,67,67,67,67,67,67,
67,67,67,67,67,67,67,67,67,67,67,67,67,67,67,67,67,67,67,67,67,67,67,67,67,67,67,67,67,67,67,67,67,67,67,67,67,67,67,67,
67,67,67,67,67,67,67,67,67,67,67,133,67,67,67,67,67,67,67,67,67,67,67,67,67,67,67,67,67,67,67,67,67,67,67,67,67,67,67,67,
67,67,67,67,135,67,67,67,67,67,67,67,67,67,67,67,67,67,67,67,67,67,67,67,193,67,67,67,67,67,67,67,67,67,67,67,67,67,67,67,
67,67,67,67,67,67,67,67,67,67,67,67,67,67,67,67,67,67,67,67,67,67,67,67,67,67,67,67,67,67,67,67,67,67,67,67,67,67,67,67,
67,67,67,67,67,67,67,67,67,67,67,67,67,67,67,67,67,67,67,67,67,67,67,67,67,67,67,67,67,67,67,67,67,67,67,67,67,67,67,67,
67,67,67,67,67,67,67,67,67,67,67,67,67,67,67,67,67,67,67,67,67,67,67,67,67,67,67,67,67,67,67,67,67,67,67,67,67,67,67,67,
67,67,67,67,67,67,67,67,67,67,67,67,67,67,67,67,67,67,67,67,67,67,67,67,67,67,67,67,67,67,67,67,67,67,67,67,67,67,67,67,
67,67,67,67,67,67,67,67,67,67,67,67,67,67,67,67,67,67,67,67,67,67,67,67,67,67,67,67,67,67,67,67,67,67,67,67,67,67,67,67,
67,67,67,67,67,67,67,67,67,67,67,67,67,67,130,67,67,67,67,67,67,67,67,67,67,67,67,67,67,67,67,67,67,67,67,67,67,67,67,67,
67,67,67,67,67,67,67,67,67,67,67,67,67,67,67,67,67,67,67,67,67,67,67,67,67,67,67,67,67,67,67,67,67,67,67,67,67,67,67,67,
67,67,67,67,67,67,67,67,67,67,67,67,67,67,67,67,67,67,67,67,67,67,67,67,67,67,67,67,67,67,67,67,67,67,67,67,67,67,67,67,
67,67,67,67,67,67,67,67,67,67,67,67,67,67,67,67,67,67,67,67,67,67,67,67,67,67,67,67,67,67,67,67,133,67,67,67,67,67,67,67,
67,67,67,67,67,67,67,67,67,67,67,67,67,67,67,67,67,67,67,67,67,67,67,67,67,67,67,67,67,67,67,67,67,67,67,67,67,67,67,67,
67,67,67,67,67,67,67,67,67,67,67,67,67,67,67,67,67,67,67,67,67,67,67,67,67,67,67,67,67,67,67,67,67,67,67,67,67,67,67,67,
67,67,67,67,67,67,67,67,67,67,67,67,67,67,67,67,67,67,67,67,67,67,67,67,67,67,67,67,67,67,67,67,67,67,67,67,67,67,67,67
</data>
 </layer>
 <layer id="2" name="objects" width="40" height="40">
  <data encoding="csv">
0,0,0,0,0,0,0,0,0,0,0,0,0,0,0,0,0,0,0,0,0,0,0,0,0,0,0,0,0,0,0,0,0,0,0,0,0,0,0,0,
0,0,0,0,0,0,0,0,0,0,0,0,0,0,0,0,0,0,0,0,0,0,0,0,0,0,0,0,118,119,120,121,122,123,124,125,126,0,0,0,
0,0,0,0,0,0,0,0,0,0,107,170,170,170,106,0,0,0,0,0,0,0,0,0,0,0,0,0,182,183,184,185,186,187,188,189,190,0,0,0,
0,0,0,0,107,168,168,168,168,168,103,1257,1258,0,297,0,0,0,0,0,0,0,0,0,0,0,0,0,246,247,248,249,250,251,252,253,254,0,0,0,
0,0,0,0,233,0,0,0,0,0,0,1321,1322,0,0,0,0,0,0,0,0,0,0,0,0,0,0,0,310,311,312,313,314,313,314,313,253,124,125,126,
0,0,0,0,233,0,0,0,0,0,0,1385,1386,0,0,0,0,0,0,0,0,0,0,0,0,0,0,0,374,375,376,377,378,377,378,377,250,253,189,190,
0,0,0,0,233,0,0,0,0,0,0,0,0,0,0,0,0,0,0,0,0,0,0,0,0,0,0,0,438,439,440,506,314,315,314,250,314,315,253,254,
0,0,0,0,233,0,0,0,0,0,0,0,0,0,0,0,0,0,0,0,0,0,0,0,0,0,0,0,502,503,504,314,315,377,378,314,315,316,317,318,
0,0,0,0,297,0,0,0,0,0,0,0,0,0,0,0,0,0,0,0,0,0,0,0,0,0,0,0,566,567,568,506,314,315,377,378,379,380,381,382,
0,0,0,0,0,0,0,0,0,0,0,0,0,0,0,0,0,0,0,0,0,0,0,0,0,0,0,0,630,631,632,438,439,440,441,442,443,444,445,446,
0,0,0,0,0,0,0,0,0,0,0,0,0,0,0,0,0,0,0,0,370,371,0,0,0,0,0,0,0,0,0,502,503,504,505,506,507,508,509,510,
0,0,0,0,0,0,0,0,0,0,0,0,0,0,0,0,0,0,0,0,434,435,0,0,0,0,0,0,0,0,0,566,567,568,569,570,571,572,573,574,
0,0,0,0,0,0,0,0,0,0,0,0,0,0,0,0,0,0,0,0,0,0,0,0,0,0,0,0,0,0,0,630,631,632,633,634,635,636,637,638,
0,245,0,0,0,0,0,0,0,0,0,0,0,0,0,0,0,0,0,0,0,0,0,0,0,0,0,1197,1198,0,0,0,0,0,0,0,0,0,0,0,
0,309,0,0,0,0,0,0,0,0,0,0,0,0,0,0,0,0,0,0,0,0,0,0,0,0,0,1261,1262,0,0,0,0,0,0,0,0,0,0,0,
0,373,0,0,0,0,0,0,0,0,0,0,0,0,0,0,0,0,0,0,0,0,0,0,0,0,0,1325,1326,0,0,0,0,0,0,0,0,0,0,0,
436,437,0,245,0,0,0,0,0,0,0,0,0,0,0,0,0,0,0,0,0,0,0,0,0,0,0,1389,1390,0,0,0,0,0,0,0,0,0,0,0,
500,501,0,309,0,0,0,0,0,0,0,0,0,0,0,0,0,0,0,0,0,0,0,0,0,0,0,0,0,0,0,0,0,0,0,0,0,0,0,0,
564,565,0,373,0,0,0,0,0,0,0,0,0,0,0,0,0,0,0,0,0,0,0,0,0,0,0,0,0,0,0,0,0,0,0,0,0,0,0,0,
0,436,437,0,0,0,0,0,0,0,0,0,0,0,0,0,0,0,0,0,0,0,0,0,0,0,0,0,0,0,0,0,0,0,0,0,0,0,0,0,
0,500,501,0,0,0,0,0,0,0,0,0,0,0,0,0,0,0,0,0,0,0,0,0,0,0,0,0,0,0,0,0,558,496,497,0,0,0,0,0,
0,564,565,0,0,0,0,0,0,0,0,0,0,0,0,0,0,0,0,0,0,0,0,0,0,0,0,0,0,0,0,0,0,560,561,0,0,0,0,0,
0,0,0,0,0,0,0,0,0,0,0,0,0,0,0,0,0,0,0,0,0,0,0,0,0,0,0,0,0,0,0,0,0,0,561,0,0,0,0,0,
0,0,0,0,0,0,0,0,0,0,0,0,0,360,361,362,0,0,0,0,0,0,0,0,0,0,0,0,0,1139,0,0,0,0,561,0,0,0,0,0,
0,0,0,0,0,0,0,0,0,0,0,0,0,424,425,426,0,0,0,0,0,0,0,0,0,0,0,0,0,0,0,0,0,0,561,0,0,0,0,0,
0,0,0,0,0,0,0,0,0,0,0,0,0,0,0,0,0,0,0,0,0,0,0,0,0,0,0,0,0,0,0,0,0,0,561,0,0,0,0,0,
0,114,115,308,0,0,0,0,0,0,0,0,0,0,0,0,0,0,0,0,0,0,0,0,0,0,0,0,0,0,0,0,0,0,561,0,0,0,0,0,
0,178,179,0,0,0,0,0,0,0,0,0,0,0,0,0,0,0,0,0,0,0,0,0,242,243,0,0,0,0,1794,1795,1795,1796,561,0,0,0,0,0,
0,0,0,0,0,0,0,0,0,0,0,0,0,0,0,308,0,0,0,0,0,0,0,0,306,307,0,0,0,1794,1859,1859,1859,1860,561,0,0,0,0,0,
0,0,0,0,0,0,0,0,0,2209,2210,2211,0,0,0,0,0,0,0,0,0,0,0,0,0,0,0,0,1794,1859,1859,1859,1923,1924,561,0,0,0,0,0,
0,0,0,0,0,0,0,0,0,2273,2274,2275,0,0,0,0,0,0,0,0,0,0,0,0,0,0,0,0,1858,1859,1859,1860,1987,1988,561,0,0,0,0,0,
0,0,0,0,0,0,0,0,0,2337,2338,2339,0,2721,2722,2723,0,0,0,0,0,0,0,0,0,0,0,0,1922,1923,1923,1924,2051,2052,561,0,0,0,0,0,
0,0,0,0,0,0,0,0,0,2401,2402,2403,0,2785,2786,2787,0,0,0,0,0,0,0,0,0,0,0,0,1986,1987,1987,1988,0,0,561,0,0,0,0,0,
0,0,0,0,0,0,0,0,0,0,0,0,0,2849,2850,2851,0,0,0,0,0,0,0,0,0,0,0,0,2050,2051,2051,2052,0,0,494,495,0,0,0,0,
0,0,0,0,0,0,0,0,0,0,0,0,0,2913,2914,2915,0,0,946,0,0,0,0,0,0,0,0,0,0,0,0,0,0,0,0,494,495,0,0,0,
0,0,0,0,1139,0,0,2406,2407,2408,0,0,0,0,0,0,0,0,0,0,0,0,0,0,0,0,0,0,558,496,496,496,496,496,496,496,559,496,496,496,
0,0,0,0,0,0,0,2470,2471,2472,0,0,0,0,0,0,0,0,0,0,0,0,0,0,0,0,0,0,0,0,0,0,0,0,0,0,561,0,0,0,
0,0,0,0,0,0,0,0,0,0,0,0,0,0,0,0,0,0,0,0,0,0,0,0,0,0,0,0,0,0,0,0,0,0,0,0,561,0,0,0,
0,0,0,0,0,0,0,0,0,0,0,0,0,0,0,0,0,0,0,0,0,0,0,0,0,0,0,0,0,0,0,0,0,0,0,0,561,0,0,0,
0,0,0,0,0,0,0,0,0,0,0,0,0,0,0,0,0,0,0,0,0,0,0,0,0,0,0,0,0,0,0,0,0,0,0,0,494,496,497,0
</data>
 </layer>
 <layer id="4" name="tips" width="40" height="40">
  <data encoding="csv">
0,0,0,0,0,0,0,0,0,0,0,0,0,0,0,0,0,0,0,0,0,0,0,0,0,0,0,0,0,0,0,0,0,0,0,0,0,0,0,0,
0,0,0,0,0,0,0,0,0,0,0,0,0,0,0,0,0,0,0,0,0,0,0,0,0,0,0,0,0,0,120,121,122,123,0,0,0,0,0,0,
0,0,0,0,0,0,0,0,0,0,0,0,0,0,0,0,0,0,0,0,0,0,0,0,0,0,0,0,0,0,0,0,0,0,0,0,0,0,0,0,
0,0,0,0,0,0,0,0,0,0,0,1257,1258,0,0,0,0,0,0,0,0,0,0,0,0,0,0,0,252,253,246,375,374,251,252,253,0,0,0,0,
0,0,0,0,0,0,0,0,0,0,0,0,0,0,0,0,0,0,0,0,0,0,0,0,0,0,0,0,0,0,0,0,0,0,0,374,253,0,0,0,
0,0,0,0,0,0,0,0,0,0,0,0,0,0,0,0,0,0,0,0,0,0,0,0,0,0,0,0,246,375,0,0,0,0,0,0,374,253,0,0,
0,0,0,0,0,0,0,0,0,0,0,0,0,0,0,0,0,0,0,0,0,0,0,0,0,0,0,0,0,0,0,0,0,0,0,0,0,374,253,0,
0,0,0,0,0,0,0,0,0,0,0,0,0,0,0,0,0,0,0,0,0,0,0,0,0,0,0,0,0,0,246,375,0,0,0,0,0,0,0,0,
0,0,0,0,0,0,0,0,0,0,0,0,0,0,0,0,0,0,0,0,0,0,0,0,0,0,0,0,0,0,0,246,375,0,0,0,0,374,381,0,
0,0,0,0,0,0,0,0,0,0,0,0,0,0,0,0,0,0,0,0,0,0,0,0,0,0,0,0,0,0,0,0,0,0,0,0,0,0,0,0,
0,0,0,0,0,0,0,0,0,0,0,0,0,0,0,0,0,0,0,0,370,371,0,0,0,0,0,0,0,0,0,0,0,504,505,506,507,0,0,0,
0,0,0,0,0,0,0,0,0,0,0,0,0,0,0,0,0,0,0,0,0,0,0,0,0,0,0,0,0,0,0,0,0,0,0,0,0,0,0,0,
0,0,0,0,0,0,0,0,0,0,0,0,0,0,0,0,0,0,0,0,0,0,0,0,0,0,0,0,0,0,0,0,0,0,0,0,0,0,0,0,
0,245,0,0,0,0,0,0,0,0,0,0,0,0,0,0,0,0,0,0,0,0,0,0,0,0,0,1197,1198,0,0,0,0,0,0,0,0,0,0,0,
0,309,0,0,0,0,0,0,0,0,0,0,0,0,0,0,0,0,0,0,0,0,0,0,0,0,0,1261,1262,0,0,0,0,0,0,0,0,0,0,0,
0,0,0,0,0,0,0,0,0,0,0,0,0,0,0,0,0,0,0,0,0,0,0,0,0,0,0,0,0,0,0,0,0,0,0,0,0,0,0,0,
436,437,0,245,0,0,0,0,0,0,0,0,0,0,0,0,0,0,0,0,0,0,0,0,0,0,0,0,0,0,0,0,0,0,0,0,0,0,0,0,
500,501,0,309,0,0,0,0,0,0,0,0,0,0,0,0,0,0,0,0,0,0,0,0,0,0,0,0,0,0,0,0,0,0,0,0,0,0,0,0,
0,0,0,0,0,0,0,0,0,0,0,0,0,0,0,0,0,0,0,0,0,0,0,0,0,0,0,0,0,0,0,0,0,0,0,0,0,0,0,0,
0,436,437,0,0,0,0,0,0,0,0,0,0,0,0,0,0,0,0,0,0,0,0,0,0,0,0,0,0,0,0,0,0,0,0,0,0,0,0,0,
0,500,501,0,0,0,0,0,0,0,0,0,0,0,0,0,0,0,0,0,0,0,0,0,0,0,0,0,0,0,0,0,0,0,0,0,0,0,0,0,
0,0,0,0,0,0,0,0,0,0,0,0,0,0,0,0,0,0,0,0,0,0,0,0,0,0,0,0,0,0,0,0,0,0,0,0,0,0,0,0,
0,0,0,0,0,0,0,0,0,0,0,0,0,0,0,0,0,0,0,0,0,0,0,0,0,0,0,0,0,0,0,0,0,0,0,0,0,0,0,0,
0,0,0,0,0,0,0,0,0,0,0,0,0,0,0,0,0,0,0,0,0,0,0,0,0,0,0,0,0,0,0,0,0,0,0,0,0,0,0,0,
0,0,0,0,0,0,0,0,0,0,0,0,0,0,0,0,0,0,0,0,0,0,0,0,0,0,0,0,0,0,0,0,0,0,0,0,0,0,0,0,
0,0,0,0,0,0,0,0,0,0,0,0,0,0,0,0,0,0,0,0,0,0,0,0,0,0,0,0,0,0,0,0,0,0,0,0,0,0,0,0,
0,114,115,0,0,0,0,0,0,0,0,0,0,0,0,0,0,0,0,0,0,0,0,0,0,0,0,0,0,0,0,0,0,0,0,0,0,0,0,0,
0,0,0,0,0,0,0,0,0,0,0,0,0,0,235,235,235,0,0,0,0,0,0,0,242,243,0,0,0,0,1794,1795,1795,1796,0,0,0,0,0,0,
0,0,0,0,0,0,0,0,0,0,0,0,0,0,0,0,0,0,0,0,0,0,0,0,0,0,0,0,0,1794,1859,0,0,1860,0,0,0,0,0,0,
0,0,0,0,0,0,0,0,0,2209,2210,2211,0,0,0,0,0,0,0,0,0,0,0,0,0,0,0,0,1794,1859,0,0,0,0,0,0,0,0,0,0,
0,0,0,0,0,0,0,0,0,0,0,0,0,0,0,0,0,0,0,0,0,0,0,0,0,0,0,0,1858,0,0,0,0,0,0,0,0,0,0,0,
0,0,0,0,0,0,0,0,0,0,0,0,0,2721,2722,2723,0,0,0,0,0,0,0,0,0,0,0,0,0,0,0,0,0,0,0,0,0,0,0,0,
0,0,0,0,0,0,0,0,0,0,0,0,0,0,0,0,0,0,0,0,0,0,0,0,0,0,0,0,0,0,0,0,0,0,0,0,0,0,0,0,
0,0,0,0,0,0,0,0,0,0,0,0,0,0,0,0,0,0,0,0,0,0,0,0,0,0,0,0,0,0,0,0,0,0,0,0,0,0,0,0,
0,0,0,0,0,0,0,0,0,0,0,0,0,0,0,0,0,0,0,0,0,0,0,0,0,0,0,0,0,0,0,0,0,0,0,0,0,0,0,0,
0,0,0,0,0,0,0,2406,2407,2408,0,0,0,0,0,0,0,0,0,0,0,0,0,0,0,0,0,0,0,0,0,0,0,0,0,0,0,0,0,0,
0,0,0,0,0,0,0,0,0,0,0,0,0,0,0,0,0,0,0,0,0,0,0,0,0,0,0,0,0,0,0,0,0,0,0,0,0,0,0,0,
0,0,0,0,0,0,0,0,0,0,0,0,0,0,0,0,0,0,0,0,0,0,0,0,0,0,0,0,0,0,0,0,0,0,0,0,0,0,0,0,
0,0,0,0,0,0,0,0,0,0,0,0,0,0,0,0,0,0,0,0,0,0,0,0,0,0,0,0,0,0,0,0,0,0,0,0,0,0,0,0,
0,0,0,0,0,0,0,0,0,0,0,0,0,0,0,0,0,0,0,0,0,0,0,0,0,0,0,0,0,0,0,0,0,0,0,0,0,0,0,0
</data>
 </layer>
 <layer id="3" name="collision" width="40" height="40" opacity="0.35">
  <data encoding="csv">
0,0,0,0,0,0,0,0,0,0,0,0,0,0,0,0,0,0,0,0,0,0,0,0,0,0,0,0,0,0,0,0,0,0,0,0,0,0,0,0,
0,0,0,0,0,0,0,0,0,0,0,0,0,0,0,0,0,0,0,0,0,0,0,0,0,0,0,0,0,0,0,4098,4098,0,0,0,0,0,0,0,
0,0,0,0,0,0,0,0,0,0,4098,4098,4098,4098,4098,0,0,0,0,0,0,0,0,0,0,0,0,0,0,0,4098,0,0,4098,0,0,0,0,0,0,
0,0,0,0,4098,4098,4098,4098,4098,4098,4098,0,0,0,4098,0,0,0,0,0,0,0,0,0,0,0,0,0,0,0,0,4098,4098,0,0,0,0,0,0,0,
0,0,0,0,4098,0,0,0,0,0,0,4098,4098,0,0,0,0,0,0,0,0,0,0,0,0,0,0,0,4098,4098,4098,0,0,4098,4098,4098,0,0,0,0,
0,0,0,0,4098,0,0,0,0,0,0,4098,4098,0,0,0,0,0,0,0,0,0,0,0,0,0,0,0,0,4098,0,0,0,0,0,0,4098,0,0,0,
0,0,0,0,4098,0,0,0,0,0,0,0,0,0,0,0,0,0,0,0,0,0,0,0,0,0,0,0,4098,4098,4098,0,0,0,0,0,0,4098,0,0,
0,0,0,0,4098,0,0,0,0,0,0,0,0,0,0,0,0,0,0,0,0,0,0,0,0,0,0,0,0,0,0,4098,0,0,0,0,0,0,4098,0,
0,0,0,0,4098,0,0,0,0,0,0,0,0,0,0,0,0,0,0,0,0,0,0,0,0,0,0,0,0,0,4098,0,0,0,0,0,0,4098,0,0,
0,0,0,0,0,0,0,0,0,0,0,0,0,0,0,0,0,0,0,0,0,0,0,0,0,0,0,0,0,0,0,4098,4098,4098,0,0,4098,4098,4098,0,
0,0,0,0,0,0,0,0,0,0,0,0,0,0,0,0,0,0,0,0,0,0,0,0,0,0,0,0,0,0,0,0,0,0,4098,4098,0,0,0,0,
0,0,0,0,0,0,0,0,0,0,0,0,0,0,0,0,0,0,0,0,4098,4098,0,0,0,0,0,0,0,0,0,0,0,4098,4098,4098,4098,0,0,0,
0,0,0,0,0,0,0,0,0,0,0,0,0,0,0,0,0,0,0,0,0,0,0,0,0,0,0,0,0,0,0,0,0,0,0,0,0,0,0,0,
0,0,0,0,0,0,4098,4098,4098,4098,4098,4098,4098,4098,0,0,0,0,0,0,0,0,0,0,0,0,0,0,0,0,0,0,0,0,0,0,0,0,0,0,
0,0,0,0,0,0,4098,0,0,0,0,0,0,0,4098,0,0,0,0,0,0,0,0,0,0,0,0,0,0,0,0,0,0,0,0,0,0,0,0,0,
0,4098,0,0,0,0,4098,0,0,0,0,0,0,0,0,4098,4098,4098,4098,4098,4098,4098,0,0,0,0,0,4098,4098,0,0,0,0,0,0,0,0,0,0,0,
0,0,0,0,0,0,4098,0,0,0,0,0,0,0,0,0,0,0,0,0,0,4098,0,0,0,0,0,4098,4098,0,0,0,0,0,0,0,0,0,0,0,
0,0,0,0,0,0,4098,0,0,0,0,0,0,0,0,0,0,0,0,0,0,4098,0,0,0,0,0,0,0,0,0,0,0,0,0,0,0,0,0,0,
4098,4098,0,4098,0,0,4098,0,0,0,0,0,0,0,0,0,0,0,0,0,0,4098,0,0,0,0,0,0,0,0,0,0,0,0,0,0,0,0,0,0,
0,0,0,0,0,0,4098,0,0,0,0,0,0,0,0,0,0,0,0,0,0,4098,0,0,0,0,0,0,0,0,0,0,0,0,0,0,0,0,0,0,
0,0,0,0,0,0,4098,0,0,0,0,0,0,0,0,0,0,0,0,0,0,4098,0,0,0,0,0,0,0,0,0,0,0,0,0,0,0,0,0,0,
0,4098,4098,0,0,0,4098,0,0,0,0,0,0,0,0,0,0,0,0,0,0,4098,0,0,0,0,0,0,0,0,0,0,0,0,0,0,0,0,0,0,
0,0,0,0,0,0,0,4098,0,0,0,0,0,0,0,0,0,0,0,0,4098,0,0,0,0,0,0,0,0,0,0,0,0,0,0,0,0,0,0,0,
0,0,0,0,0,0,0,0,4098,4098,4098,4098,4098,4098,4098,4098,4098,4098,4098,4098,0,0,0,0,0,0,0,0,0,4098,0,0,0,0,0,0,0,0,0,0,
0,0,0,0,0,0,0,0,0,0,0,0,0,0,0,0,0,0,0,0,0,0,0,0,0,0,0,0,0,0,0,0,0,0,0,0,0,0,0,0,
0,0,0,0,0,0,0,0,0,0,0,0,0,0,0,0,0,0,0,0,0,0,0,0,0,0,0,0,0,0,0,0,0,0,0,0,0,0,0,0,
0,0,0,4098,0,0,0,0,0,0,0,0,0,0,0,0,0,0,0,0,0,0,0,0,0,0,0,0,0,0,0,0,0,0,0,0,0,0,0,0,
0,4098,4098,0,0,0,0,0,0,0,0,0,0,0,0,0,0,0,0,0,0,0,0,0,0,0,0,0,0,0,0,0,0,0,0,0,0,0,0,0,
0,0,0,0,0,0,0,0,0,0,0,0,0,0,0,4098,0,0,0,0,0,0,0,0,4098,4098,0,0,0,0,0,4098,4098,0,0,0,0,0,0,0,
0,0,0,0,0,0,0,0,0,0,0,0,0,0,0,0,0,0,0,0,0,0,0,0,0,0,0,0,0,0,4098,0,0,4098,0,0,0,0,0,0,
0,0,0,0,0,0,0,0,0,4098,4098,4098,0,0,0,0,0,0,0,0,0,0,0,0,0,0,0,0,0,4098,0,0,0,4098,0,0,0,0,0,0,
0,0,0,0,0,0,0,0,0,4098,0,4098,0,0,0,0,0,0,0,0,0,0,0,0,0,0,0,0,4098,0,0,4098,4098,4098,0,0,0,0,0,0,
0,0,0,0,0,0,0,0,0,4098,4098,4098,0,4098,4098,4098,0,0,0,0,0,0,0,0,0,0,0,0,4098,0,0,4098,0,0,0,0,0,0,0,0,
0,0,0,0,0,0,0,0,0,0,0,0,0,4098,0,4098,0,0,0,0,0,0,0,0,0,0,0,0,4098,4098,4098,4098,0,0,0,0,0,0,0,0,
0,0,0,0,0,0,0,0,0,0,0,0,0,4098,4098,4098,0,0,4098,0,0,0,0,0,0,0,0,0,0,0,0,0,0,0,0,0,0,0,0,0,
0,0,0,0,4098,0,0,0,0,0,0,0,0,0,0,0,0,0,0,0,0,0,0,0,0,0,0,0,0,0,0,0,0,0,0,0,0,0,0,0,
0,0,0,0,0,0,0,0,4098,0,0,0,0,0,0,0,0,0,0,0,0,0,0,0,0,0,0,0,0,0,0,0,0,0,0,0,0,0,0,0,
0,0,0,0,0,0,0,0,0,0,0,0,0,0,0,0,0,0,0,0,0,0,0,0,0,0,0,0,0,0,0,0,0,0,0,0,0,0,0,0,
0,0,0,0,0,0,0,0,0,0,0,0,0,0,0,0,0,0,0,0,0,0,0,0,0,0,0,0,0,0,0,0,0,0,0,0,0,0,0,0,
0,0,0,0,0,0,0,0,0,0,0,0,0,0,0,0,0,0,0,0,0,0,0,0,0,0,0,0,0,0,0,0,0,0,0,0,0,0,0,0
</data>
 </layer>
</map>
